apps/ui-icons/svgs/checkmark.svg

<svg viewBox="0 0 24 24" width="24" height="24"  fill="none" xmlns="http://www.w3.org/2000/svg">
<path fill-rule="evenodd" clip-rule="evenodd" d="M10.2599 13.8455L16.2096 7.89573C16.6001 7.50521 17.2294 7.50135 17.6152 7.88711C18.001 8.27287 17.9971 8.90216 17.6066 9.29268L10.9498 15.9495C10.5593 16.3401 9.92995 16.3439 9.54418 15.9582L6.69848 13.1125C6.31271 12.7268 6.31656 12.0975 6.70709 11.707C7.09762 11.3165 7.72694 11.3126 8.11271 11.6983L10.2599 13.8455Z" fill="#171D26"/>
</svg>

<svg xmlns="http://www.w3.org/2000/svg" width="24" height="24" fill="none" viewBox="0 0 24 24">
  <path fill="#171D26" fill-rule="evenodd" d="m10.26 13.845 5.95-5.95a.994.994 0 0 1 1.405-.008.994.994 0 0 1-.008 1.406L10.95 15.95a.994.994 0 0 1-1.406.008l-2.846-2.845a.994.994 0 0 1 .01-1.406.994.994 0 0 1 1.405-.009l2.147 2.147Z" clip-rule="evenodd"/>
</svg>
